lib/brands/logos/snagit.svg

<svg xmlns="http://www.w3.org/2000/svg" fill="none" aria-hidden="true" viewBox="0 0 161 73"><g id="Snagit"><g id="Vector"><path fill="#3C7CB5" fill-rule="evenodd" d="M5.86007 45.2644C5.86007 45.2644 10.3524 50.1944 17.6919 50.1944C23.1967 50.1944 27.5625 46.7815 27.5625 41.4714C27.5625 28.8926 4.91113 32.3687 4.91113 18.5257C4.91113 12.6467 10.1627 7.08423 18.1979 7.08423C25.411 7.08423 29.4604 11.1929 29.4604 11.1929L27.9422 13.5321C27.9422 13.5321 24.1456 9.73906 18.2615 9.73906C11.6809 9.73906 7.75836 14.1638 7.75836 18.4625C7.75836 30.1564 30.4098 26.5538 30.4098 41.345C30.4098 47.7296 25.4742 52.8492 17.5654 52.8492C8.83372 52.8492 4.025 47.35 4.025 47.35L5.86007 45.2644Z" clip-rule="evenodd"/><path fill="#3C7CB5" fill-rule="evenodd" d="M34.7746 20.4852H37.4322V26.0481C37.4322 27.5019 37.179 28.6393 37.179 28.6393H37.3054C38.3812 25.6688 42.8102 19.7266 50.719 19.7266C58.9447 19.7266 61.159 24.5938 61.159 32.053V52.0907H58.5018V33.0012C58.5018 27.5019 57.8057 22.3183 50.719 22.3183C44.7717 22.3183 39.5202 26.4905 37.9383 32.3691C37.5587 33.6965 37.4322 35.1503 37.4322 36.667V52.0907H34.7746V20.4852Z" clip-rule="evenodd"/><path fill="#3C7CB5" fill-rule="evenodd" d="M75.3317 50.384C82.2283 50.384 86.1513 43.2412 86.1513 36.9834V35.2768H84.1266C78.7482 35.2768 67.2329 35.2768 67.2329 43.4945C67.2329 46.8446 69.9537 50.384 75.3317 50.384ZM84.0634 32.8116H86.1513V31.737C86.1513 24.7202 82.5448 22.3183 77.4828 22.3183C71.9784 22.3183 68.435 25.3523 68.435 25.3523L66.9164 23.2032C66.9164 23.2032 70.713 19.7266 77.6096 19.7266C84.8859 19.7266 88.8085 23.7721 88.8085 31.6738V52.0907H86.1513V47.9192C86.1513 46.2121 86.4041 45.0747 86.4041 45.0747H86.2777C86.3409 45.0747 83.4305 52.8492 75.2053 52.8492C70.0801 52.8492 64.4488 50.0051 64.4488 43.6841C64.4488 32.938 78.4321 32.8116 84.0634 32.8116Z" clip-rule="evenodd"/><path fill="#3C7CB5" fill-rule="evenodd" d="M117.216 35.7825C117.216 25.6053 112.408 22.3183 106.207 22.3183C99.4369 22.3183 95.3875 27.2487 95.3875 35.7825C95.3875 44.3163 100.07 49.4995 106.84 49.4995C112.408 49.4995 117.216 46.023 117.216 35.7825ZM105.131 62.7737C111.902 62.7737 117.153 59.55 117.153 51.9015V48.2353C117.153 46.7815 117.406 45.6433 117.406 45.6433H117.28C115.381 49.4995 111.902 52.0908 106.65 52.0908C98.4247 52.0908 92.6035 45.6433 92.6035 35.7825C92.6035 25.9213 97.9815 19.7267 106.207 19.7267C115.192 19.7267 117.216 25.9213 117.216 25.9213H117.343C117.343 25.9213 117.153 25.4789 117.153 24.7203V20.4852H119.81V51.9015C119.81 61.5727 112.85 65.3657 105.321 65.3657C101.841 65.3657 98.4879 64.4808 95.3875 62.9005L96.6529 60.5617C96.6529 60.5617 100.576 62.7737 105.131 62.7737Z" clip-rule="evenodd"/><path fill="#3C7CB5" fill-rule="evenodd" d="M126.137 52.0907H128.795V20.4852H126.137V52.0907ZM125.884 12.4571H129.048V7.84274H125.884V12.4571Z" clip-rule="evenodd"/><path fill="#3C7CB5" fill-rule="evenodd" d="M136.133 23.0768H131.957V20.6748H136.133V11.6989H138.791V20.6748H147.079V23.0768H138.791V40.46C138.791 48.8037 143.789 49.8787 146.32 49.8787C147.206 49.8787 147.775 49.7519 147.775 49.7519V52.2175C147.775 52.2175 147.142 52.3439 146.193 52.3439C142.903 52.3439 136.133 51.1429 136.133 40.6496V23.0768Z" clip-rule="evenodd"/><path fill="#3C7CB5" fill-rule="evenodd" d="M153.375 12.8212C153.811 12.8212 154.091 12.5414 154.091 12.0749C154.091 11.6194 153.811 11.3602 153.375 11.3602H152.618V12.8212H153.375ZM152.037 10.8731H153.479C154.195 10.8731 154.693 11.3495 154.693 12.0749C154.693 12.6762 154.309 13.0491 153.935 13.1423V13.1633C153.935 13.1633 153.976 13.215 154.07 13.3912L154.848 14.9142H154.205L153.396 13.2771H152.618V14.9142H152.037V10.8731ZM153.261 16.1061C155.025 16.1061 156.373 14.7072 156.373 12.8938C156.373 11.101 155.025 9.69185 153.261 9.69185C151.539 9.69185 150.211 11.101 150.211 12.8938C150.211 14.7072 151.539 16.1061 153.261 16.1061ZM153.261 9.13204C155.326 9.13204 156.975 10.8004 156.975 12.8938C156.975 15.0078 155.326 16.6655 153.261 16.6655C151.238 16.6655 149.598 15.0078 149.598 12.8938C149.598 10.8004 151.238 9.13204 153.261 9.13204Z" clip-rule="evenodd"/></g></g></svg>

<svg xmlns="http://www.w3.org/2000/svg" fill="none" aria-hidden="true" viewBox="0 0 161 73"><path fill="#3C7CB5" fill-rule="evenodd" d="M5.86 45.264s4.492 4.93 11.832 4.93c5.505 0 9.87-3.413 9.87-8.723 0-12.578-22.65-9.102-22.65-22.945 0-5.88 5.25-11.442 13.286-11.442 7.213 0 11.262 4.109 11.262 4.109l-1.518 2.34s-3.796-3.794-9.68-3.794c-6.581 0-10.504 4.425-10.504 8.723 0 11.694 22.652 8.092 22.652 22.883 0 6.385-4.936 11.504-12.845 11.504-8.731 0-13.54-5.499-13.54-5.499l1.835-2.086Zm28.915-24.779h2.657v5.563c0 1.454-.253 2.591-.253 2.591h.126c1.076-2.97 5.505-8.912 13.414-8.912 8.226 0 10.44 4.867 10.44 12.326v20.038h-2.657V33c0-5.5-.696-10.683-7.783-10.683-5.947 0-11.199 4.173-12.78 10.051-.38 1.328-.507 2.781-.507 4.298V52.09h-2.657V20.485Zm40.557 29.899c6.896 0 10.82-7.143 10.82-13.4v-1.707h-2.025c-5.379 0-16.894 0-16.894 8.218 0 3.35 2.72 6.889 8.099 6.889Zm8.731-17.572h2.088v-1.075c0-7.017-3.606-9.419-8.668-9.419-5.505 0-9.048 3.034-9.048 3.034l-1.519-2.149s3.797-3.476 10.694-3.476c7.276 0 11.198 4.045 11.198 11.947V52.09h-2.657v-4.172c0-1.707.253-2.844.253-2.844h-.126c.063 0-2.848 7.774-11.073 7.774-5.125 0-10.756-2.844-10.756-9.165 0-10.746 13.983-10.872 19.614-10.872Zm33.153 2.97c0-10.177-4.808-13.464-11.009-13.464-6.77 0-10.82 4.93-10.82 13.464S100.07 49.5 106.84 49.5c5.568 0 10.376-3.477 10.376-13.718Zm-12.085 26.992c6.771 0 12.022-3.224 12.022-10.872v-3.667c0-1.453.253-2.592.253-2.592h-.126c-1.899 3.857-5.378 6.448-10.63 6.448-8.225 0-14.047-6.448-14.047-16.309 0-9.86 5.379-16.055 13.604-16.055 8.985 0 11.009 6.194 11.009 6.194h.127s-.19-.442-.19-1.2v-4.236h2.657v31.417c0 9.67-6.959 13.464-14.489 13.464-3.48 0-6.833-.885-9.933-2.465l1.265-2.34s3.923 2.213 8.478 2.213Zm21.006-10.684h2.658V20.486h-2.658v31.606Zm-.253-39.633h3.164V7.843h-3.164v4.614Zm10.249 10.62h-4.176v-2.402h4.176v-8.976h2.658v8.976h8.288v2.402h-8.288V40.46c0 8.344 4.998 9.419 7.529 9.419.886 0 1.455-.127 1.455-.127v2.465s-.633.127-1.581.127c-3.291 0-10.061-1.201-10.061-11.694V23.077Zm17.242-10.256c.436 0 .716-.28.716-.746 0-.456-.28-.715-.716-.715h-.757v1.461h.757Zm-1.338-1.948h1.442c.716 0 1.214.477 1.214 1.202 0 .601-.384.974-.758 1.067v.021s.042.052.135.228l.778 1.523h-.643l-.809-1.637h-.778v1.637h-.581v-4.04Zm1.224 5.233c1.764 0 3.112-1.399 3.112-3.212 0-1.793-1.348-3.202-3.112-3.202-1.722 0-3.05 1.41-3.05 3.202 0 1.813 1.328 3.212 3.05 3.212Zm0-6.974c2.065 0 3.714 1.668 3.714 3.762 0 2.114-1.649 3.772-3.714 3.772-2.023 0-3.663-1.658-3.663-3.772 0-2.094 1.64-3.762 3.663-3.762Z" clip-rule="evenodd"/></svg>
